X:36
T:Persistence of Noel Reid, The
C:Ed Yother
C:http://edyother.com
M:6/8
R:jig
K:G
DFA DFA|cBc G2A|cBc GBc|({c}d2) d/d/ dcA|
DFA DFA|cBc GBc|dcd Acd|age cBA:|
|: aa/a/a age|ged e2 f|gfg def|gfg age|
aa/a/a age|ged e2 f|gfg dfg|age cBA:|

%%newpage
%%scale .65
%%staffsep 35

